X: 1
T: Dogs Among The Bushes, The
M: 4/4
L: 1/8
R: reel
K: Gmaj
BG~G2 DG~G2|BG~G2 cedc|BG~G2 DGFG|AF~F2 fdcA|
BG~G2 DG~G2|BG~G2 c2cA|BG~G2 DGFG|AF~F2 fdcA||
dggf ~g3f|dg~g2 bgaf|dffe fgfe|df~f2 af~f2|
dggf ~g3f|dg~g2 bgag|bg~g2 aggf|d^cde fd=cA||
